X:1
T:I lift mine eyes to Sion (Ps 121)
T:Giles Farnaby
T:Source : The Whole Book of Psalms---London---Musical Antiquarion Society---1844. First publication : London---Th.Est(e)---1592. Editor : André Vierendeels (14/09/16).
T:I lift mine eyes to Sion (Ps 121)
T:©
T:©
T:©
C:Giles Farnaby
Z:©
%%score [ 1 [ 2 3 ] 4 ]
L:1/8
Q:1/4=113
M:4/4
K:C
V:1 treble nm="Soprano" snm="S"
V:2 treble-8 nm="Tenor 1" snm="T 1"
V:3 treble-8 nm="Tenor 2" snm="T 2"
V:4 bass nm="Bass" snm="B"
V:1
 G4 ^F2 G2 | AD G4 ^F2 |[M:2/4] G4 ||[M:4/4] E2 A4 ^G2 | A2 B2 c4 || c2 A2 B2 G2 | A2- G2 G4 || %7
w: I lift mine|eyes to Si- on|hill,|from whence I|do at- tend,|that suc- cour God|me _ send,|
 c4 c2 B2 | A2 B2 cA B2 |[M:2/4] A4 ||[M:4/4] A4 G2 F2 | E2 D4 ^C2 |[M:2/4] D4 || %13
w: the migh- ty|God me suc- * cour|will,|which heav'n and|earth fra- *|med,|
[M:4/4] B3- d c2 c2 | B2 AG- G^F/E/ F2 | G8 |] %16
w: and _ all things|there- in na- * * * *|med.|
V:2
 d4 d2 d2 | e3 d d3 c |[M:2/4] B4 ||[M:4/4] z2 e2 e2 e2 | e^f g2 g4 || g2 f4 e2 | d2 d2 e4 || %7
w: I lift mine|eyes to Si- on|hill,|from whence I|do _ at- tend,|that suc- cour|God me send,|
 e4 e2 g2 | fe e3 d B2 |[M:2/4] ^c4 ||[M:4/4] e4 e2 c2 | c2 A6 |[M:2/4] A4 ||[M:4/4] d4 e3 ^f | %14
w: the migh- ty|God _ me suc- cour|will,|which heav'n and|earth fra-|med,|and all things|
 g2 e2 d4 | B8 |] %16
w: there- in na-|med.|
V:3
 G4 A2 G2 | c2 B2 A2 A2 |[M:2/4] G4 ||[M:4/4] c4 c2 B2 | c2 d2 e4 || e2 d4 c2 | c2 B2 c4 || %7
w: I lift mine|eyes to Si- on|hill,|from whence I|do at- tand,|that suc- cour|God me send,|
 G4 A2 B2 | c2 B2 A2 ^G2 |[M:2/4] A4 ||[M:4/4]"^-natural" c4 B2 A2 | G2 F2 E4 |[M:2/4] D4 || %13
w: the migh- ty|God me suc- cour|will,|which heav'n and|earth fra- *|med,|
[M:4/4] G4 G2 A2 | B2 c2 A4 | G8 |] %16
w: and all things|there- in na-|med.|
V:4
 G,,4 D,2 B,,2 | A,,2 G,,2 D,2 D,2 |[M:2/4] G,,4 ||[M:4/4] A,,4 E,2 E,2 | A,2 G,2 C,4 || %5
w: I lift mine|eyes to Si- on|hill,|from whence I|do at- tand,|
 C,2 D,4 E,2 | F,2 G,2 C,4 || C,4 A,,2 E,2 | A,2 G,2 F,2 E,2 |[M:2/4] A,,4 || %10
w: thet suc- cour|God me send,|the migh- ty|God me suc- cour|will,|
[M:4/4] A,,4 E,2 A,,2 | C,2 D,2 A,,4 |[M:2/4] D,4 ||[M:4/4] G,,4 C,2 A,,2 | E,2 C,2 D,4 | G,,8 |] %16
w: which heav'n and|earth fra- *|med,|and all things|there- in na-|med.|

